!!!OTL: Nomthini
!!!XEN: [A Girl's Name]
!!!CNT: African -- sub-Saharan -- Xhosa
**kern
*k[f#c#]
*M4/4
*MM138[Briskly]
=1
8A
[8a
8a]
8a
8g
[8a
8a]
8g
=2
2f#
2r
=3
8a
[8f#
8f#]
8d
8e
[8B
8B]
8c#
=4
2d
2r
=5
8A
[8a
8a]
8a
8a
[8b
8b]
8e
=6
2f#
2r
=7
8a
[8f#
8f#]
8d
8e
[8B
8B]
8c#
=8
2d
2r
=9
8A
[8a
8a]
8a
8g
[8a
8a]
8g
=10
2f#
2r
=11
8a
[8f#
8f#]
8d
8e
[8B
8B]
8c#
=12
2d
2r
=13
8A
[8a
8a]
8a
8a
[8b
8b]
8e
=14
2f#
2r
=15
8a
[8f#
8f#]
8d
8e
[8B
8B]
8c#
=16
2d
4r
8g
8f#
=17
8e
8g
4f#
4e
8g
8f#
=18
8e
8g
4f#
4e
4r
=19
8a
8a
8a
8a
8a
8a
16g
16a
8a
=20
2a
4r
8g
8f#
=21
8e
8g
4f#
4e
8g
8f#
=22
8e
8g
4f#
4e
4r
=23
8a
8a
8a
8a
8a
8a
16g
16a
8a
!! page 59
=24
2a
2r
=25
8A
[8a
8a]
8a
8g
[8a
8a]
8g
=26
2f#
2r
=27
8a
[8f#
8f#]
8d
8e
[8B
8B]
8c#
=28
2d
2r
=29
8A
[8a
8a]
8a
8a
[8b
8b]
8e
=30
2f#
2r
=31
8a
[8f#
8f#]
8d
8e
[8B
8B]
8c#
=32
2d
4r
8r
8a
!! Repeat this next section.
=33
2.dd
(16cc#
16b)
8a
=34
16cc#
16b
[8a
4a_
4.a]
8dd
=35
[2cc#
8cc#]
8dd
8ee
8ee
=36
2.dd
8r
8a
=37
2.dd
(16cc#
16b)
8a
=38
16cc#
16b
[8a
4a_
4.a]
8dd
=39
[2cc#
8cc#]
8dd
8ee
8ee
=40
2.dd
4r
=41
8r
16f#
16e
8d
8e
8f#
8a
8g
8g
=42
1f#
=43
8r
16f#
16e
8d
8e
8f#
8d
8e
8B
=44
2d
2r
=45
8r
16f#
16e
8d
8e
8f#
8a
8g
8g
=46
1f#
=47
8r
16f#
16e
8d
8e
8f#
8d
8e
8B
!! First ending.
=48
2d
4r
8r
8a
!! Repeating.
=49
2.dd
(16cc#
16b)
8a
=50
16cc#
16b
[8a
4a_
4.a]
8dd
=51
[2cc#
8cc#]
8dd
8ee
8ee
=52
2.dd
8r
8a
=53
2.dd
(16cc#
16b)
8a
=54
16cc#
16b
[8a
4a_
4.a]
8dd
=55
[2cc#
8cc#]
8dd
8ee
8ee
=56
2.dd
4r
=57
8r
16f#
16e
8d
8e
8f#
8a
8g
8g
=58
1f#
=59
8r
16f#
16e
8d
8e
8f#
8d
8e
8B
=60
2d
2r
=61
8r
16f#
16e
8d
8e
8f#
8a
8g
8g
=62
1f#
=63
8r
16f#
16e
8d
8e
8f#
8d
8e
8B
!! Second ending.
=64
4d
4r
2r
==
*-
!!!OPR: Miriam Makeba, "The World of African Song"
!!!PPP: Chicago
!!!PPR: Quadrangle Press (12 East Delaware Place)
!!!PDT: 1971///
!!!PPG: 58-59
!!!ENC: David Huron
!!!EMD: 1998/9/29/ Paul von Hippel updated this file in the following ways:
!!!EMD:  (1) changed the representation of slurs from curly braces to parentheses 
!!!EMD:  (2) changed freeform comments into reference records and tandem interpretations
!!!EMD:  (3) changed final barline from triple (===) to double (==)
!!!EMD:  (4) added key signature from printed source
!!!EMD:  (5) added verbal tempo marking from printed source
!!!EEV: Version 2.0
